SVG_Azure_Grouped/Management/Connection Monitor.svg

<?xml version="1.0" encoding="UTF-8" standalone="no"?>
<!-- Generated by Microsoft Visio, SVG Export Connection Monitor.svg Page-1 -->

<svg
   xmlns:dc="http://purl.org/dc/elements/1.1/"
   xmlns:cc="http://creativecommons.org/ns#"
   xmlns:rdf="http://www.w3.org/1999/02/22-rdf-syntax-ns#"
   xmlns:svg="http://www.w3.org/2000/svg"
   xmlns="http://www.w3.org/2000/svg"
   xmlns:sodipodi="http://sodipodi.sourceforge.net/DTD/sodipodi-0.dtd"
   xmlns:inkscape="http://www.inkscape.org/namespaces/inkscape"
   width="0.78739876in"
   height="0.7873807in"
   viewBox="0 0 56.692778 56.691698"
   xml:space="preserve"
   class="st10"
   version="1.1"
   id="svg74"
   sodipodi:docname="Connection Monitor.svg"
   style="font-size:12px;overflow:visible;color-interpolation-filters:sRGB;fill:none;fill-rule:evenodd;stroke-linecap:square;stroke-miterlimit:3"
   inkscape:version="0.92.5 (2060ec1f9f, 2020-04-08)"><metadata
   id="metadata80"><rdf:RDF><cc:Work
       rdf:about=""><dc:format>image/svg+xml</dc:format><dc:type
         rdf:resource="http://purl.org/dc/dcmitype/StillImage" /></cc:Work></rdf:RDF></metadata><defs
   id="defs78" /><sodipodi:namedview
   pagecolor="#ffffff"
   bordercolor="#666666"
   borderopacity="1"
   objecttolerance="10"
   gridtolerance="10"
   guidetolerance="10"
   inkscape:pageopacity="0"
   inkscape:pageshadow="2"
   inkscape:window-width="640"
   inkscape:window-height="480"
   id="namedview76"
   showgrid="false"
   inkscape:zoom="1.7193066"
   inkscape:cx="37.795072"
   inkscape:cy="23.277745"
   inkscape:window-x="0"
   inkscape:window-y="0"
   inkscape:window-maximized="0"
   inkscape:current-layer="svg74" />
	<style
   type="text/css"
   id="style2">
	<![CDATA[
		.st1 {fill:#7a7a7a;stroke:none;stroke-linecap:butt;stroke-width:12.24}
		.st2 {fill:#a0a1a2;stroke:none;stroke-linecap:butt;stroke-width:12.24}
		.st3 {fill:#ffffff;fill-opacity:0.2;stroke:none;stroke-linecap:butt;stroke-width:12.24}
		.st4 {fill:#59b4d9;stroke:none;stroke-linecap:butt;stroke-width:12.24}
		.st5 {fill:#b8d432;stroke:none;stroke-linecap:butt;stroke-width:12.24}
		.st6 {fill:#ffffff;stroke:none;stroke-linecap:butt;stroke-width:12.24}
		.st7 {fill:#ffffff;fill-opacity:0.7;stroke:none;stroke-linecap:butt;stroke-width:12.24}
		.st8 {fill:#ffffff;fill-opacity:0.4;stroke:none;stroke-linecap:butt;stroke-width:12.24}
		.st9 {fill:#804998;stroke:none;stroke-linecap:butt;stroke-width:12.24}
		.st10 {fill:none;fill-rule:evenodd;font-size:12px;overflow:visible;stroke-linecap:square;stroke-miterlimit:3}
	]]>
	</style>

	<g
   id="g72"
   transform="translate(-12.24016,-12.2412)">
		<title
   id="title4">Page-1</title>
		<g
   id="group12463-1"
   transform="translate(12.24,-34.0157)">
			<title
   id="title6">Connection Monitor.12463</title>
			<g
   id="group12464-2">
				<title
   id="title8">g28</title>
				<g
   id="shape12465-3"
   transform="translate(9.08904,-4.52152)">
					<title
   id="title10">path4</title>
					<path
   d="M 26.61,90.81 H 11.17 C 13.02,97.5 10.92,99.47 0,99.47 v 3.48 h 36.75 v -3.5 c -10.92,0 -11.99,-1.94 -10.14,-8.64 z"
   class="st1"
   id="path12"
   inkscape:connector-curvature="0"
   style="fill:#7a7a7a;stroke:none;stroke-width:12.23999977;stroke-linecap:butt" />
				</g>
				<g
   id="shape12466-5"
   transform="translate(0,-16.6531)">
					<title
   id="title15">path6</title>
					<path
   d="M 51.09,62.91 H 3.1 c -1.72,0 -3.1,1.56 -3.1,3.3 v 33.47 c 0,1.73 1.38,3.27 3.1,3.27 h 47.99 c 1.71,0 3.45,-1.54 3.45,-3.27 V 66.21 c -0.01,-1.75 -1.74,-3.3 -3.45,-3.3 z"
   class="st2"
   id="path17"
   inkscape:connector-curvature="0"
   style="fill:#a0a1a2;stroke:none;stroke-width:12.23999977;stroke-linecap:butt" />
				</g>
				<g
   id="shape12467-7"
   transform="translate(0,-16.6519)">
					<title
   id="title20">path8</title>
					<path
   d="M 50.96,62.91 H 50.93 3.09 C 1.38,62.91 0,64.47 0,66.21 v 33.46 c 0,1.74 1.38,3.28 3.09,3.28 h 1.19 z"
   class="st3"
   id="path22"
   inkscape:connector-curvature="0"
   style="fill:#ffffff;fill-opacity:0.2;stroke:none;stroke-width:12.23999977;stroke-linecap:butt" />
				</g>
				<g
   id="shape12468-9"
   transform="translate(4.54452,-20.7526)">
					<title
   id="title25">path10</title>
					<rect
   x="0"
   y="71.645798"
   width="45.445202"
   height="31.302799"
   class="st4"
   id="rect27"
   style="fill:#59b4d9;stroke:none;stroke-width:12.23999977;stroke-linecap:butt" />
				</g>
				<g
   id="shape12469-11"
   transform="translate(4.47863,-21.1132)">
					<title
   id="title30">path12</title>
					<path
   d="M 0,102.95 H 0.07 V 71.83 l 41.5,-0.07 v 0 L 0,71.83 Z"
   class="st4"
   id="path32"
   inkscape:connector-curvature="0"
   style="fill:#59b4d9;stroke:none;stroke-width:12.23999977;stroke-linecap:butt" />
				</g>
				<g
   id="shape12470-13"
   transform="translate(9.08904,-4.52152)">
					<title
   id="title35">path14</title>
					<path
   d="m 0,99.47 36.75,-0.02 v 3.5 H 0 Z"
   class="st2"
   id="path37"
   inkscape:connector-curvature="0"
   style="fill:#a0a1a2;stroke:none;stroke-width:12.23999977;stroke-linecap:butt" />
				</g>
				<g
   id="shape12471-15"
   transform="translate(26.4593,-53.551)">
					<title
   id="title40">path16</title>
					<path
   d="m 1.61,102.13 a 0.806655,0.82315104 0 1 1 -1.61331,0 0.806655,0.82315104 0 1 1 1.61331,0 z"
   class="st5"
   id="path42"
   inkscape:connector-curvature="0"
   style="fill:#b8d432;stroke:none;stroke-width:12.23999977;stroke-linecap:butt" />
				</g>
				<g
   id="shape12472-17"
   transform="translate(17.4476,-37.8022)">
					<title
   id="title45">path18</title>
					<path
   d="M 9.85,102.95 A 0.299938,0.306072 0 0 1 9.704575,102.9083 L 0.14,97.27 a 0.290849,0.296797 0 0 1 0,-0.51128 L 9.65,91.17 a 0.289713,0.295638 0 0 1 0.285169,0 L 19.5,96.8 A 0.287441,0.293319 0 0 1 19.642016,97.05506 0.285169,0.291 0 0 1 19.5,97.31012 L 10,102.91 a 0.291986,0.297957 0 0 1 -0.146561,0.0429 z"
   class="st6"
   id="path47"
   inkscape:connector-curvature="0"
   style="fill:#ffffff;stroke:none;stroke-width:12.23999977;stroke-linecap:butt" />
				</g>
				<g
   id="shape12473-19"
   transform="translate(16.0206,-23.9548)">
					<title
   id="title50">path20</title>
					<path
   d="M 9.83,102.95 A 0.270399,0.275929 0 0 1 9.684575,102.9106 L 0.15,97.36 A 0.279488,0.285204 0 0 1 0.002303,97.107259 L 0,85.97 c 0,-0.11 0.06,-0.2 0.15,-0.26 a 0.289713,0.295638 0 0 1 0.290849,0 L 9.97,91.26 a 0.29653,0.302594 0 0 1 0.14088,0.253901 L 10.11,102.66 c 0,0.1 -0.06,0.2 -0.14,0.25 a 0.304483,0.31071 0 0 1 -0.144289,0.0406 z"
   class="st7"
   id="path52"
   inkscape:connector-curvature="0"
   style="fill:#ffffff;fill-opacity:0.7;stroke:none;stroke-width:12.23999977;stroke-linecap:butt" />
				</g>
				<g
   id="shape12474-21"
   transform="translate(28.4033,-23.9548)">
					<title
   id="title55">path22</title>
					<path
   d="M 0.29,102.95 A 0.310164,0.316506 0 0 1 0.140031,102.9106 0.293122,0.299116 0 0 1 2.87e-4,102.6567 L 0,91.59 A 0.295394,0.301435 0 0 1 0.139744,91.337259 L 9.67,85.79 a 0.286305,0.29216 0 0 1 0.286305,0 C 10.05,85.84 10.1,85.93 10.1,86.04 V 97.1 A 0.279488,0.285204 0 0 1 9.953439,97.352741 L 0.43,102.91 a 0.247676,0.252741 0 0 1 -0.138608,0.0406 z"
   class="st8"
   id="path57"
   inkscape:connector-curvature="0"
   style="fill:#ffffff;fill-opacity:0.4;stroke:none;stroke-width:12.23999977;stroke-linecap:butt" />
				</g>
				<g
   id="shape12475-23"
   transform="translate(29.653)">
					<title
   id="title60">circle24</title>
					<ellipse
   cx="13.52"
   cy="89.152199"
   rx="13.52"
   ry="13.7964"
   class="st9"
   id="ellipse62"
   style="fill:#804998;stroke:none;stroke-width:12.23999977;stroke-linecap:butt" />
				</g>
				<g
   id="shape12476-25"
   transform="translate(33.3818,-3.80503)">
					<title
   id="title65">path26</title>
					<path
   d="m 12.85,99.28 a 6.80542,6.94459 0 0 1 -3.06,0.75 6.93494,7.07676 0 0 1 -6.93,-7.07 6.93494,7.07676 0 0 1 6.93,-7.07 c 3.41,0 6.24,2.6 6.82,5.91 H 13.2 l 4.54,6.37 4.55,-6.37 H 19.5 C 18.9,86.87 14.78,82.97 9.79,82.97 4.39,82.97 0,87.45 0,92.96 c 0,5.51 4.39,9.99 9.79,9.99 a 9.73777,9.93691 -180 0 0 4.77,-1.28 z"
   class="st6"
   id="path67"
   inkscape:connector-curvature="0"
   style="fill:#ffffff;stroke:none;stroke-width:12.23999977;stroke-linecap:butt" />
				</g>
			</g>
		</g>
	</g>
</svg>

<?xml version="1.0" encoding="UTF-8" standalone="no"?>
<!DOCTYPE svg PUBLIC "-//W3C//DTD SVG 1.1//EN" "http://www.w3.org/Graphics/SVG/1.1/DTD/svg11.dtd">
<!-- Generated by Microsoft Visio, SVG Export Connection Monitor.svg Page-1 -->
<svg xmlns="http://www.w3.org/2000/svg" xmlns:xlink="http://www.w3.org/1999/xlink" xmlns:ev="http://www.w3.org/2001/xml-events"
		width="1.1274in" height="1.42984in" viewBox="0 0 81.1729 102.949" xml:space="preserve" color-interpolation-filters="sRGB"
		class="st10">
	<style type="text/css">
	<![CDATA[
		.st1 {fill:#7a7a7a;stroke:none;stroke-linecap:butt;stroke-width:12.24}
		.st2 {fill:#a0a1a2;stroke:none;stroke-linecap:butt;stroke-width:12.24}
		.st3 {fill:#ffffff;fill-opacity:0.2;stroke:none;stroke-linecap:butt;stroke-width:12.24}
		.st4 {fill:#59b4d9;stroke:none;stroke-linecap:butt;stroke-width:12.24}
		.st5 {fill:#b8d432;stroke:none;stroke-linecap:butt;stroke-width:12.24}
		.st6 {fill:#ffffff;stroke:none;stroke-linecap:butt;stroke-width:12.24}
		.st7 {fill:#ffffff;fill-opacity:0.7;stroke:none;stroke-linecap:butt;stroke-width:12.24}
		.st8 {fill:#ffffff;fill-opacity:0.4;stroke:none;stroke-linecap:butt;stroke-width:12.24}
		.st9 {fill:#804998;stroke:none;stroke-linecap:butt;stroke-width:12.24}
		.st10 {fill:none;fill-rule:evenodd;font-size:12px;overflow:visible;stroke-linecap:square;stroke-miterlimit:3}
	]]>
	</style>

	<g>
		<title>Page-1</title>
		<g id="group12181-1" transform="translate(12.24,-34.0157)">
			<title>Connection Monitor.12181</title>
			<g id="group12182-2">
				<title>g28</title>
				<g id="shape12183-3" transform="translate(9.08904,-4.52152)">
					<title>path4</title>
					<path d="M26.61 90.81 L11.17 90.81 C13.02 97.5 10.92 99.47 0 99.47 L0 102.95 L36.75 102.95 L36.75 99.45 C25.83
								 99.45 24.76 97.51 26.61 90.81 Z" class="st1"/>
				</g>
				<g id="shape12184-5" transform="translate(2.8777E-13,-16.6531)">
					<title>path6</title>
					<path d="M51.09 62.91 L3.1 62.91 C1.38 62.91 0 64.47 0 66.21 L0 99.68 C0 101.41 1.38 102.95 3.1 102.95 L51.09
								 102.95 C52.8 102.95 54.54 101.41 54.54 99.68 L54.54 66.21 C54.53 64.46 52.8 62.91 51.09 62.91 Z"
							class="st2"/>
				</g>
				<g id="shape12185-7" transform="translate(0,-16.6519)">
					<title>path8</title>
					<path d="M50.96 62.91 L50.93 62.91 L3.09 62.91 C1.38 62.91 0 64.47 0 66.21 L0 99.67 C0 101.41 1.38 102.95 3.09
								 102.95 L4.28 102.95 L50.96 62.91 Z" class="st3"/>
				</g>
				<g id="shape12186-9" transform="translate(4.54452,-20.7526)">
					<title>path10</title>
					<rect x="0" y="71.6458" width="45.4452" height="31.3028" class="st4"/>
				</g>
				<g id="shape12187-11" transform="translate(4.47863,-21.1132)">
					<title>path12</title>
					<path d="M0 102.95 L0.07 102.95 L0.07 71.83 L41.57 71.76 L41.57 71.76 L0 71.83 L0 102.95 Z" class="st4"/>
				</g>
				<g id="shape12188-13" transform="translate(9.08904,-4.52152)">
					<title>path14</title>
					<path d="M0 99.47 L36.75 99.45 L36.75 102.95 L0 102.95 L0 99.47 Z" class="st2"/>
				</g>
				<g id="shape12189-15" transform="translate(26.4593,-53.551)">
					<title>path16</title>
					<path d="M1.61 102.13 a0.806653 0.823149 0 1 1 -1.61331 0 a0.806653 0.823149 0 1 1 1.61331 -1.42109E-14 Z"
							class="st5"/>
				</g>
				<g id="shape12190-17" transform="translate(17.4476,-37.8022)">
					<title>path18</title>
					<path d="M9.85 102.95 a0.299938 0.306072 0 0 1 -0.145425 -0.0417371 L0.14 97.27 a0.290849 0.296797 0 0 1 -4.82947E-15
								 -0.51128 L9.65 91.17 a0.289713 0.295638 0 0 1 0.285169 -1.42109E-14 L19.5 96.8 a0.287441 0.293319
								 0 0 1 0.142016 0.25506 a0.285169 0.291 0 0 1 -0.142016 0.25506 L10 102.91 a0.291986 0.297957 0 0
								 1 -0.146561 0.0428965 Z" class="st6"/>
				</g>
				<g id="shape12191-19" transform="translate(16.0206,-23.9548)">
					<title>path20</title>
					<path d="M9.83 102.95 a0.270399 0.275929 0 0 1 -0.145425 -0.0394184 L0.15 97.36 a0.279488 0.285204 0 0 1 -0.147697
								 -0.252741 L0 85.97 C0 85.86 0.06 85.77 0.15 85.71 a0.289713 0.295638 0 0 1 0.290849 -1.42109E-14
								 L9.97 91.26 a0.29653 0.302594 0 0 1 0.14088 0.253901 L10.11 102.66 C10.11 102.76 10.05 102.86 9.97
								 102.91 a0.304483 0.31071 0 0 1 -0.144289 0.0405777 Z" class="st7"/>
				</g>
				<g id="shape12192-21" transform="translate(28.4033,-23.9548)">
					<title>path22</title>
					<path d="M0.29 102.95 a0.310164 0.316506 0 0 1 -0.149969 -0.0394184 a0.293122 0.299116 0 0 1 -0.139744 -0.253901
								 L0 91.59 a0.295394 0.301435 0 0 1 0.139744 -0.252741 L9.67 85.79 a0.286305 0.29216 0 0 1 0.286305
								 -7.10543E-14 C10.05 85.84 10.1 85.93 10.1 86.04 L10.1 97.1 a0.279488 0.285204 0 0 1 -0.146561 0.252741
								 L0.43 102.91 a0.247676 0.252741 0 0 1 -0.138608 0.0405777 Z" class="st8"/>
				</g>
				<g id="shape12193-23" transform="translate(29.653,2.84217E-13)">
					<title>circle24</title>
					<ellipse cx="13.52" cy="89.1522" rx="13.52" ry="13.7964" class="st9"/>
				</g>
				<g id="shape12194-25" transform="translate(33.3818,-3.80503)">
					<title>path26</title>
					<path d="M12.85 99.28 A6.80542 6.94459 0 0 1 9.79 100.03 A6.93494 7.07676 0 0 1 2.86 92.96 A6.93494 7.07676 0
								 0 1 9.79 85.89 C13.2 85.89 16.03 88.49 16.61 91.8 L13.2 91.8 L17.74 98.17 L22.29 91.8 L19.5 91.8
								 C18.9 86.87 14.78 82.97 9.79 82.97 C4.39 82.97 0 87.45 0 92.96 C0 98.47 4.39 102.95 9.79 102.95
								 A9.73777 9.93691 -180 0 0 14.56 101.67 L12.85 99.28 Z" class="st6"/>
				</g>
			</g>
		</g>
	</g>
</svg>
